X: 1
T: Richard Deasy's March
Z: slainte
S: https://thesession.org/tunes/5049#setting5049
R: barndance
M: 4/4
L: 1/8
K: Ador
ed|c2A>G ABcd|eAce a2ge|d2B>A GABc|dBge d2ed|
c2A>G ABcd|efge a2b>a|ged>c dged|1 c2A>G A2:|2 c2A>G ABcd||
e2a>b aged|ecAB c2Bc|dg f/g/a gab>a|gedB G2ed|
c2A>G ABcd|efge a2b>a|ged>c dged|c2A>G ABcd|
e2a>b aged|ecAB c2Bc|dg f/g/a gab>a|gedB G2AB|
c2Bd cBce|d2cd efge|a>gec dged|c2A>G A2||
